Default.style/baby_goods.svg

<?xml version="1.0" encoding="UTF-8" standalone="no"?>
<svg width="33px" height="28px" viewBox="0 0 33 28" version="1.1" xmlns="http://www.w3.org/2000/svg" xmlns:xlink="http://www.w3.org/1999/xlink" xmlns:sketch="http://www.bohemiancoding.com/sketch/ns">
    <!-- Generator: Sketch 3.2.2 (9983) - http://www.bohemiancoding.com/sketch -->
    <title>baby_goods</title>
    <desc>Created with Sketch.</desc>
    <defs></defs>
    <g id="p" stroke="none" stroke-width="1" fill="none" fill-rule="evenodd" sketch:type="MSPage">
        <g id="baby_goods" sketch:type="MSLayerGroup" fill="#888888">
            <path d="M33,6.90390621 C33,3.22558754 29.974,0.232805225 26.252,0.232805225 C23.9,0.232805225 21.742,1.42754057 20.516,3.3781491 C19.133,2.89173529 17.704,2.64506108 16.264,2.64506108 C14.999,2.64506108 13.734,2.83724902 12.496,3.21766226 C11.273,1.22247405 9.107,2.45385108e-07 6.749,2.45385108e-07 C3.028,-0.000990414102 0,2.99773585 0,6.68497047 C0,9.2418626 1.456,11.5500992 3.743,12.6774697 C3.559,13.5373621 3.466,14.4240024 3.466,15.3225305 C3.466,22.3126239 9.207,28 16.263,28 C23.319,28 29.061,22.3126239 29.061,15.3235212 C29.061,14.5874612 28.991,13.8325787 28.852,13.0747242 C31.351,12.039485 33,9.61236925 33,6.90390621 L33,6.90390621 Z M9,11 C9,9.89602446 9.89602446,9 11,9 C12.1039755,9 13,9.89602446 13,11 L13,11 C13,12.1039755 12.1039755,13 11,13 C9.89602446,13 9,12.1039755 9,11 L9,11 Z M16.5010206,26 C12.9157639,26 10,23.0842361 10,19.5 C10,15.9147433 12.9157639,13 16.5010206,13 C20.0852567,13 23,15.9147433 23,19.5 C23,23.0842361 20.082195,26 16.5010206,26 L16.5010206,26 Z M16.7903309,18.9789663 L16.7903309,20.7256775 C17.2452147,21.6732306 17.8056787,22.186976 18.4588957,22.2493663 C19.2571623,22.3273543 20.02188,21.7131995 20.3169131,21.3086372 C20.4382812,21.141938 20.6731235,21.1039189 20.8428415,21.2238253 C21.0125595,21.3437317 21.0510421,21.5767206 20.9277005,21.7424449 C20.4728168,22.3682979 19.5689698,23 18.5960515,23 C18.5259935,23 18.4549488,22.9961006 18.383904,22.9892767 C17.8421878,22.93566 17.1100323,22.6519789 16.4647092,21.67713 C16.0640958,22.393644 15.42864,22.8547475 14.6698427,22.9561318 C13.6594286,23.0906609 12.63224,22.5476701 12.0520412,21.5728212 C11.9464609,21.3953987 12.0066515,21.1672841 12.1862369,21.0629752 C12.3658222,20.9596413 12.5967176,21.0181322 12.702298,21.1965295 C13.1275797,21.9120686 13.8617087,22.3137064 14.569196,22.219146 C15.2618822,22.1255605 15.7937311,21.593293 16.0354805,20.7558978 L16.0354805,18.9457922 C15.1552895,18.7363128 14.5,17.9442162 14.5,17 C14.5,15.8960245 15.3957962,15 16.4994904,15 C17.6031847,15 18.5,15.8950051 18.5,17 C18.5,18.005182 17.7565128,18.8379662 16.7903309,18.9789663 Z M22,13 C20.895568,13 20,12.1039755 20,11 C20,9.89602446 20.895568,9 22,9 C23.1023943,9 24,9.89602446 24,11 C24,12.1039755 23.104432,13 22,13 Z" id="Shape" sketch:type="MSShapeGroup"></path>
        </g>
    </g>
</svg>

<svg width="33" height="28" xmlns="http://www.w3.org/2000/svg"><path d="M33 6.904C33 3.226 29.974.233 26.252.233a6.757 6.757 0 0 0-5.736 3.145 12.781 12.781 0 0 0-4.252-.733c-1.265 0-2.53.192-3.768.573A6.73 6.73 0 0 0 6.749 0C3.028-.001 0 2.998 0 6.685a6.675 6.675 0 0 0 3.743 5.992c-.184.86-.277 1.747-.277 2.646C3.466 22.313 9.207 28 16.263 28c7.056 0 12.798-5.687 12.798-12.676 0-.737-.07-1.491-.209-2.25C31.351 12.04 33 9.613 33 6.905ZM9 11a2 2 0 0 1 4 0 2 2 0 0 1-4 0Zm7.501 15A6.507 6.507 0 0 1 10 19.5c0-3.585 2.916-6.5 6.501-6.5A6.506 6.506 0 0 1 23 19.5c0 3.584-2.918 6.5-6.499 6.5Zm.29-7.021v1.747c.454.947 1.015 1.461 1.668 1.523.798.078 1.563-.536 1.858-.94a.38.38 0 0 1 .526-.085c.17.12.208.353.085.518-.455.626-1.359 1.258-2.332 1.258-.07 0-.141-.004-.212-.01-.542-.054-1.274-.338-1.92-1.313-.4.717-1.035 1.178-1.794 1.28-1.01.134-2.038-.41-2.618-1.384a.37.37 0 0 1 .134-.51.38.38 0 0 1 .516.134c.426.715 1.16 1.117 1.867 1.022.693-.093 1.225-.626 1.466-1.463v-1.81A2.002 2.002 0 0 1 16.5 15a2 2 0 0 1 .291 3.979ZM22 13a2 2 0 1 1 0-4 2 2 0 0 1 0 4Z" fill="#888" fill-rule="evenodd"/></svg>
